X:101
T:Major May 
C:Joe Buchanan's Scottish Tome - Page 128.2
I:128 2
R:Jig
Z:Carl Allison
L:1/8
M:6/8
K:C
A | d2 f a2 f  | g>fg e2 f |  g2 A c2 e | d>cd f2 A |
d2 f a2 f | g>fg e2 f | g2 A c2 e |  d3 d2 :|
f | a2 f f>ef | g2 e e2 e | f2 d d>cd | e2 d c>BA |
a2 f f>ef | g2 e e2 e | c2 A g>fe | d3 d2 :|

